24x24/apps/bingwall.svg

<svg width="24" height="24" version="1.1" xmlns="http://www.w3.org/2000/svg">
 <g transform="translate(1,1)">
  <circle cx="11" cy="11.5" r="10" style="opacity:.2"/>
  <circle cx="11" cy="11" r="10" style="fill:#46a9d7"/>
  <path d="M 11,1 A 10,10 0 0 0 1,11 10,10 0 0 0 1.0098,11.293 10,10 0 0 1 11,1.5 10,10 0 0 1 20.99,11.207 10,10 0 0 0 21,11 10,10 0 0 0 11,1 Z" style="fill:#f4f4f7;opacity:.2"/>
  <circle cx="7.5" cy="7" r="1.5" style="opacity:.1"/>
  <circle cx="7.5" cy="6.5" r="1.5" style="fill:#9f3699"/>
  <path d="m13.015625 7.46875-2.083984 3.626953-1.4335941-2.6484374-4.3359375 8.0527344h12.671875zm-0.03125 2.0625 3.181641 5.96875h-2.84961l-1.824218-3.371094zm-3.484375 1.019531 2.679688 4.949219h-5.3437505z" style="opacity:.1"/>
  <path d="M 13.015625,6.96875 10.931641,10.595703 9.4980469,7.9472656 5.1621094,16 H 17.833984 Z M 12.984375,9.03125 16.166016,15 h -2.84961 L 11.492188,11.628906 Z M 9.5,10.050781 12.179688,15 H 6.8359375 Z" style="fill:#9f3699"/>
 </g>
</svg>

<svg width="24" height="24" xmlns="http://www.w3.org/2000/svg"><g transform="translate(1 1)"><circle cx="11" cy="11.5" r="10" style="opacity:.2"/><circle cx="11" cy="11" r="10" style="fill:#46a9d7"/><path d="M11 1A10 10 0 0 0 1 11a10 10 0 0 0 .01.293A10 10 0 0 1 11 1.5a10 10 0 0 1 9.99 9.707A10 10 0 0 0 21 11 10 10 0 0 0 11 1z" style="fill:#f4f4f7;opacity:.2"/><circle cx="7.5" cy="7" r="1.5" style="opacity:.1"/><circle cx="7.5" cy="6.5" r="1.5" style="fill:#9f3699"/><path d="m13.016 7.469-2.084 3.627-1.434-2.649L5.162 16.5h12.672zm-.032 2.062 3.182 5.969h-2.85l-1.824-3.371zM9.5 10.551l2.68 4.949H6.836z" style="opacity:.1"/><path d="m13.016 6.969-2.084 3.627-1.434-2.649L5.162 16h12.672zm-.032 2.062L16.166 15h-2.85l-1.824-3.371zM9.5 10.051 12.18 15H6.836z" style="fill:#9f3699"/></g></svg>
